; generated by PrusaSlicer 2.5.0+MacOS-arm64 on 2023-02-23 at 23:29:51 UTC


;
;
; 

; external perimeters extrusion width = 0.60mm
; perimeters extrusion width = 0.50mm
; infill extrusion width = 0.50mm
; solid infill extrusion width = 0.50mm
; top infill extrusion width = 0.45mm
; first layer extrusion width = 0.42mm

M73 P0 R7
M73 Q0 S7
M201 X1000 Y1000 Z200 E5000 ; sets maximum accelerations, mm/sec^2
M203 X200 Y200 Z12 E120 ; sets maximum feedrates, mm / sec
M204 P1250 R1250 T1250 ; sets acceleration (P, T) and retract acceleration (R), mm/sec^2
M205 X8.00 Y8.00 Z0.40 E4.50 ; sets the jerk limits, mm/sec
M205 S0 T0 ; sets the minimum extruding and travel feed rate, mm/sec
M107
;TYPE:Custom
M862.3 P "MK3S" ; printer model check
M862.1 P0.4 ; nozzle diameter check
M115 U3.12.1 ; tell printer latest fw version
G90 ; use absolute coordinates
M83 ; extruder relative mode
M104 S215 ; set extruder temp
M140 S60 ; set bed temp
M190 S60 ; wait for bed temp
M109 S215 ; wait for extruder temp
G28 W ; home all without mesh bed level
G80 ; mesh bed leveling

G1 Z0.2 F720
G1 Y-3 F1000 ; go outside print area
G92 E0
G1 X60 E9 F1000 ; intro line
G1 X100 E12.5 F1000 ; intro line

G92 E0
M221 S95

; Don't change E values below. Excessive value can damage the printer.

M907 E538 ; set extruder motor current
G21 ; set units to millimeters
G90 ; use absolute coordinates
M83 ; use relative distances for extrusion
M900 K0.05 ; Filament gcode LA 1.5
M900 K30 ; Filament gcode LA 1.0
M107
;LAYER_CHANGE
;Z:0.2
;HEIGHT:0.2
;BEFORE_LAYER_CHANGE
G92 E0.0
;0.2


G1 E-.8 F2100
M73 P1 R7
M73 Q1 S7
G1 Z.4 F720
;AFTER_LAYER_CHANGE
;0.2
G1 X117.897 Y99.446 F10800
G1 Z.2 F720
G1 E.8 F2100
M204 S800
;TYPE:Skirt/Brim
;WIDTH:0.42
G1 F1200
G1 X118.764 Y98.548 E.03914
G1 X119.994 Y97.618 E.04834
G1 X121.659 Y96.797 E.05821
G1 X123.458 Y96.332 E.05825
G1 X125.315 Y96.244 E.05829
G1 X127.152 Y96.539 E.05833
G1 X128.89 Y97.204 E.05837
G1 X130.457 Y98.212 E.05841
G1 X131.381 Y99.062 E.03937
G1 X132.515 Y100.542 E.05846
G1 X133.321 Y102.224 E.05848
G1 X133.766 Y104.036 E.05849
G1 X133.845 Y105.578 E.0484
G1 X133.716 Y106.828 E.03941
M73 Q2 S7
G1 X133.207 Y108.623 E.05849
G1 X132.341 Y110.274 E.05848
G1 X131.155 Y111.713 E.05845
G1 X129.7 Y112.877 E.05842
M73 P2 R7
G1 X128.038 Y113.717 E.05839
G1 X126.24 Y114.2 E.05835
G1 X124.384 Y114.304 E.05831
G1 X122.546 Y114.026 E.05827
G1 X120.805 Y113.379 E.05823
G1 X119.234 Y112.391 E.0582
G1 X118.108 Y111.34 E.0483
G1 X117.013 Y109.846 E.05808
G1 X116.246 Y108.161 E.05804
G1 X115.838 Y106.356 E.05802
G1 X115.805 Y104.507 E.05801
G1 X116.149 Y102.688 E.05801
G1 X116.856 Y100.978 E.05804
G1 X117.863 Y99.495 E.05619
M204 S1000
G1 X118.174 Y99.707 F10800
M204 S800
G1 F1200
G1 X119.007 Y98.837 E.03778
G1 X120.205 Y97.931 E.0471
G1 X121.802 Y97.145 E.05579
G1 X123.526 Y96.702 E.05582
G1 X125.306 Y96.621 E.05586
G1 X127.066 Y96.906 E.0559
G1 X128.732 Y97.546 E.05594
G1 X130.232 Y98.514 E.05597
G1 X131.098 Y99.312 E.03693
G1 X132.187 Y100.729 E.05602
G1 X132.962 Y102.339 E.05604
G1 X133.39 Y104.075 E.05606
G1 X133.468 Y105.578 E.04718
G1 X133.347 Y106.75 E.03697
G1 X132.861 Y108.471 E.05605
G1 X132.034 Y110.055 E.05604
G1 X130.899 Y111.435 E.05602
M73 P2 R6
G1 X129.507 Y112.553 E.05599
G1 X127.915 Y113.361 E.05596
G1 X126.193 Y113.826 E.05592
G1 X124.414 Y113.928 E.05588
G1 X122.653 Y113.665 E.05584
G1 X120.983 Y113.047 E.0558
G1 X119.476 Y112.102 E.05577
G1 X118.379 Y111.078 E.04707
G1 X117.332 Y109.645 E.05566
G1 X116.599 Y108.029 E.05562
G1 X116.21 Y106.299 E.0556
G1 X116.181 Y104.526 E.0556
G1 X116.514 Y102.784 E.0556
G1 X117.194 Y101.146 E.05562
G1 X118.14 Y99.757 E.05269
M204 S1000
M73 Q3 S7
G1 X118.451 Y99.969 F10800
M204 S800
M73 Q3 S6
G1 F1200
G1 X119.25 Y99.125 E.03645
G1 X120.417 Y98.243 E.04586
G1 X121.945 Y97.494 E.05336
G1 X123.595 Y97.073 E.0534
M73 P3 R6
G1 X125.298 Y96.998 E.05343
G1 X126.981 Y97.274 E.05347
G1 X128.573 Y97.888 E.05351
G1 X130.006 Y98.816 E.05354
G1 X130.815 Y99.562 E.0345
G1 X131.859 Y100.915 E.05358
G1 X132.603 Y102.454 E.0536
G1 X133.015 Y104.114 E.05362
G1 X133.091 Y105.578 E.04596
G1 X132.977 Y106.673 E.03453
G1 X132.516 Y108.32 E.05362
G1 X131.727 Y109.836 E.0536
G1 X130.644 Y111.158 E.05358
G1 X129.313 Y112.229 E.05355
G1 X127.792 Y113.004 E.05352
G1 X126.146 Y113.452 E.05349
G1 X124.444 Y113.552 E.05345
G1 X122.759 Y113.303 E.05341
G1 X121.162 Y112.715 E.05338
G1 X119.719 Y111.813 E.05335
G1 X118.65 Y110.816 E.04583
G1 X117.651 Y109.443 E.05324
G1 X116.952 Y107.897 E.05321
G1 X116.583 Y106.241 E.05319
G1 X116.558 Y104.545 E.05318
G1 X116.879 Y102.879 E.05318
G1 X117.531 Y101.313 E.0532
G1 X118.417 Y100.019 E.04917
M204 S1000
; printing object bottle.stl id:0 copy 0
;WIPE_START
G1 F8640
G1 X119.25 Y99.125 E-.28213
G1 X120.417 Y98.243 E-.33772
G1 X120.962 Y97.976 E-.14014
;WIPE_END
G1 E-.04 F2100
G1 Z.6 F720
G1 X129.425 Y105.37 F10800
G1 Z.2 F720
G1 E.8 F2100
M204 S800
;TYPE:Perimeter
;WIDTH:0.419999
G1 F1200
G1 X129.403 Y105.773 E.01265
G1 X129.32 Y106.275 E.01596
G1 X129.139 Y106.893 E.02016
G1 X128.693 Y107.763 E.03068
G1 X128.298 Y108.267 E.02009
G1 X127.913 Y108.65 E.017
G1 X127.362 Y109.072 E.02177
G1 X126.731 Y109.402 E.02233
G1 X126.075 Y109.636 E.02183
G1 X125.374 Y109.755 E.02229
G1 X124.689 Y109.777 E.02151
G1 X124.018 Y109.684 E.02122
G1 X123.518 Y109.55 E.01624
G1 X123.052 Y109.368 E.0157
G1 X122.546 Y109.1 E.01795
G1 X121.919 Y108.57 E.02573
G1 X121.359 Y107.893 E.02754
G1 X121.023 Y107.301 E.02135
G1 X120.768 Y106.677 E.02116
G1 X120.611 Y105.974 E.02257
G1 X120.551 Y105.272 E.02209
G1 X120.576 Y104.794 E.01501
G1 X120.712 Y104.083 E.02271
G1 X120.93 Y103.432 E.02152
G1 X121.233 Y102.855 E.02041
G1 X121.664 Y102.269 E.02283
G1 X122.034 Y101.867 E.01711
G1 X122.536 Y101.45 E.02048
G1 X123.095 Y101.157 E.01979
G1 X123.575 Y100.975 E.0161
G1 X124.228 Y100.816 E.02105
G1 X124.931 Y100.767 E.0221
G1 X125.617 Y100.814 E.02158
M73 Q4 S6
G1 X126.304 Y100.981 E.02216
G1 X126.953 Y101.239 E.02188
G1 X127.558 Y101.612 E.02229
G1 X128.1 Y102.061 E.02208
G1 X128.564 Y102.607 E.02246
G1 X128.941 Y103.203 E.02214
G1 X129.21 Y103.87 E.02253
G1 X129.381 Y104.558 E.02223
G1 X129.428 Y105.311 E.02364
M204 S1000
M73 P4 R6
G1 X129.808 Y105.422 F10800
M204 S800
;TYPE:External perimeter
G1 F1200
G1 X129.754 Y106.045 E.01963
G1 X129.647 Y106.551 E.01622
G1 X129.489 Y107.038 E.01605
G1 X129.014 Y107.962 E.03258
G1 X128.522 Y108.58 E.02477
G1 X128.163 Y108.932 E.01575
G1 X127.766 Y109.247 E.01589
G1 X127.338 Y109.52 E.01593
G1 X126.882 Y109.748 E.01598
G1 X126.405 Y109.926 E.01596
G1 X125.914 Y110.054 E.01593
G1 X125.412 Y110.13 E.0159
G1 X124.906 Y110.154 E.01588
G1 X124.401 Y110.126 E.01587
G1 X123.9 Y110.045 E.0159
G1 X123.403 Y109.91 E.01616
G1 X122.901 Y109.714 E.0169
G1 X122.329 Y109.411 E.02027
G1 X121.65 Y108.836 E.0279
G1 X121.233 Y108.331 E.02054
G1 X120.903 Y107.872 E.01771
G1 X120.583 Y107.261 E.02163
G1 X120.408 Y106.79 E.01576
G1 X120.279 Y106.297 E.01598
G1 X120.2 Y105.789 E.01613
G1 X120.174 Y105.272 E.01622
G1 X120.242 Y104.489 E.02465
G1 X120.347 Y103.987 E.01607
G1 X120.501 Y103.504 E.01589
G1 X120.707 Y103.03 E.0162
G1 X121.053 Y102.429 E.02175
G1 X121.541 Y101.818 E.02452
G1 X121.921 Y101.452 E.01655
G1 X122.326 Y101.135 E.01612
G1 X123.001 Y100.787 E.02382
G1 X123.679 Y100.546 E.02254
G1 X124.169 Y100.443 E.01571
G1 X124.668 Y100.39 E.01575
G1 X125.172 Y100.389 E.0158
G1 X125.675 Y100.44 E.01584
G1 X126.171 Y100.543 E.01589
G1 X126.655 Y100.697 E.01593
G1 X127.122 Y100.901 E.01597
G1 X127.566 Y101.154 E.01601
G1 X127.982 Y101.451 E.01605
G1 X128.366 Y101.792 E.01608
G1 X128.712 Y102.172 E.01612
G1 X129.017 Y102.586 E.01614
G1 X129.277 Y103.031 E.01616
G1 X129.487 Y103.501 E.01614
G1 X129.647 Y103.993 E.01621
G1 X129.754 Y104.499 E.01622
G1 X129.808 Y105.013 E.01622
G1 X129.808 Y105.362 E.01092
M204 S1000
G1 X129.454 Y105.608 F10800
;WIPE_START
G1 F8640
G1 X129.754 Y106.045 E-.15836
G1 X129.647 Y106.551 E-.11942
G1 X129.489 Y107.038 E-.11816
G1 X129.014 Y107.962 E-.2399
G1 X128.679 Y108.383 E-.12416
;WIPE_END
G1 E-.04 F2100
G1 Z.6 F720
G1 X128.769 Y103.133 F10800
G1 Z.2 F720
G1 E.8 F2100
M204 S800
;TYPE:Solid infill
;WIDTH:0.424837
G1 F1200
G1 X127.874 Y102.238 E.04023
G1 X127.57 Y101.968 E.01291
G1 X127.21 Y101.71 E.01406
G1 X126.826 Y101.492 E.01403
G1 X126.407 Y101.311 E.0145
G1 X128.887 Y103.791 E.11141
G1 X129.008 Y104.164 E.01243
G1 X129.086 Y104.53 E.01189
G1 X125.669 Y101.113 E.15347
G1 X125.065 Y101.05 E.01928
G1 X129.148 Y105.132 E.18336
G1 X129.131 Y105.656 E.01663
G1 X124.543 Y101.067 E.20607
G1 X124.073 Y101.138 E.01508
G1 X129.062 Y106.127 E.22406
G1 X128.951 Y106.556 E.01408
G1 X123.645 Y101.25 E.23829
G1 X123.252 Y101.397 E.01332
M73 Q5 S6
G1 X128.797 Y106.941 E.24899
G1 X128.613 Y107.298 E.01274
M73 P5 R6
G1 X122.89 Y101.575 E.25704
G1 X122.694 Y101.686 E.00716
G1 X122.563 Y101.788 E.00527
G1 X128.425 Y107.65 E.26326
G1 X128.195 Y107.96 E.01226
G1 X122.269 Y102.034 E.26617
G1 X121.998 Y102.303 E.01213
G1 X127.937 Y108.243 E.26673
G1 X127.655 Y108.5 E.01214
G1 X121.758 Y102.604 E.26483
G1 X121.529 Y102.914 E.01227
G1 X127.349 Y108.734 E.26138
G1 X127.018 Y108.943 E.01244
G1 X121.331 Y103.256 E.25539
G1 X121.16 Y103.625 E.01292
G1 X126.659 Y109.125 E.24698
G1 X126.271 Y109.277 E.01324
G1 X121.019 Y104.025 E.23586
G1 X120.914 Y104.46 E.01421
M73 Q6 S6
G1 X125.848 Y109.394 E.22159
G1 X125.384 Y109.47 E.01493
M73 P6 R6
G1 X120.852 Y104.938 E.20355
G1 X120.835 Y105.272 E.01063
G1 X120.845 Y105.471 E.00632
G1 X124.868 Y109.494 E.18069
G1 X124.283 Y109.45 E.01862
G1 X120.913 Y106.079 E.15136
G1 X121.038 Y106.591 E.01674
G1 X121.129 Y106.835 E.00825
G1 X123.561 Y109.267 E.10924
G1 X123.042 Y109.055 E.01782
G1 X122.708 Y108.867 E.01216
G1 X122.136 Y108.383 E.02379
G1 X121.244 Y107.49 E.0401
M204 S1000
; stop printing object bottle.stl id:0 copy 0
M106 S84.15
;LAYER_CHANGE
;Z:0.5
;HEIGHT:0.3
;BEFORE_LAYER_CHANGE
G92 E0.0
;0.5


;WIPE_START
G1 F8640
G1 X122.136 Y108.383 E-.29154
G1 X122.708 Y108.867 E-.17299
G1 X123.042 Y109.055 E-.08844
G1 X123.561 Y109.267 E-.12954
G1 X123.324 Y109.03 E-.07749
;WIPE_END
G1 E-.04 F2100
G1 Z.6 F720
;AFTER_LAYER_CHANGE
;0.5
G1 X121.598 Y113.674 F10800
G1 Z.5 F720
G1 E.8 F2100
;TYPE:Skirt/Brim
;WIDTH:0.42
G1 F900
G1 X120.805 Y113.379 E.03752
G1 X119.234 Y112.391 E.08233
G1 X118.108 Y111.34 E.06833
G1 X117.013 Y109.846 E.08216
G1 X116.246 Y108.161 E.08211
G1 X115.838 Y106.356 E.08207
G1 X115.805 Y104.507 E.08206
G1 X116.149 Y102.688 E.08207
G1 X116.856 Y100.978 E.0821
G1 X117.897 Y99.446 E.08215
G1 X118.764 Y98.548 E.05536
G1 X119.994 Y97.618 E.06838
G1 X121.659 Y96.797 E.08235
G1 X123.458 Y96.332 E.0824
G1 X125.315 Y96.244 E.08246
G1 X127.152 Y96.539 E.08252
G1 X128.89 Y97.204 E.08257
G1 X130.457 Y98.212 E.08263
G1 X131.381 Y99.062 E.05569
M73 Q7 S6
G1 X132.515 Y100.542 E.0827
G1 X133.321 Y102.224 E.08273
M73 P7 R6
G1 X133.766 Y104.036 E.08275
G1 X133.845 Y105.578 E.06847
G1 X133.716 Y106.828 E.05575
G1 X133.207 Y108.623 E.08274
G1 X132.341 Y110.274 E.08272
G1 X131.155 Y111.713 E.08269
G1 X129.7 Y112.877 E.08265
G1 X128.038 Y113.717 E.0826
G1 X126.24 Y114.2 E.08255
G1 X124.384 Y114.304 E.08249
G1 X122.546 Y114.026 E.08243
G1 X121.654 Y113.695 E.04219
G1 X121.784 Y113.343 F10800
G1 F900
G1 X120.983 Y113.047 E.03788
G1 X119.476 Y112.102 E.0789
G1 X118.379 Y111.078 E.06658
G1 X117.332 Y109.645 E.07874
G1 X116.599 Y108.029 E.07869
G1 X116.21 Y106.299 E.07866
G1 X116.181 Y104.526 E.07865
G1 X116.514 Y102.784 E.07865
G1 X117.194 Y101.146 E.07868
G1 X118.193 Y99.679 E.07873
G1 X119.007 Y98.837 E.05194
G1 X120.205 Y97.931 E.06663
G1 X121.802 Y97.145 E.07892
G1 X123.526 Y96.702 E.07897
G1 X125.306 Y96.621 E.07902
G1 X127.066 Y96.906 E.07908
G1 X128.732 Y97.546 E.07913
G1 X130.232 Y98.514 E.07918
G1 X131.098 Y99.312 E.05225
G1 X132.187 Y100.729 E.07925
G1 X132.962 Y102.339 E.07928
G1 X133.39 Y104.075 E.0793
G1 X133.468 Y105.578 E.06674
G1 X133.347 Y106.75 E.0523
M73 Q8 S6
G1 X132.861 Y108.471 E.07929
G1 X132.034 Y110.055 E.07927
G1 X130.899 Y111.435 E.07924
M73 P8 R6
G1 X129.507 Y112.553 E.0792
G1 X127.915 Y113.361 E.07916
G1 X126.193 Y113.826 E.07911
G1 X124.414 Y113.928 E.07905
G1 X122.653 Y113.665 E.079
G1 X121.841 Y113.364 E.0384
G1 X121.97 Y113.012 F10800
G1 F900
G1 X121.162 Y112.715 E.03822
G1 X119.719 Y111.813 E.07547
G1 X118.65 Y110.816 E.06483
G1 X117.651 Y109.443 E.07532
G1 X116.952 Y107.897 E.07527
G1 X116.583 Y106.241 E.07524
G1 X116.558 Y104.545 E.07523
G1 X116.879 Y102.879 E.07524
G1 X117.531 Y101.313 E.07526
G1 X118.49 Y99.912 E.07531
G1 X119.25 Y99.125 E.04852
G1 X120.417 Y98.243 E.06487
G1 X121.945 Y97.494 E.07549
G1 X123.595 Y97.073 E.07554
G1 X125.298 Y96.998 E.07559
G1 X126.981 Y97.274 E.07564
G1 X128.573 Y97.888 E.07569
G1 X130.006 Y98.816 E.07574
G1 X130.815 Y99.562 E.0488
G1 X131.859 Y100.915 E.0758
G1 X132.603 Y102.454 E.07583
G1 X133.015 Y104.114 E.07585
G1 X133.091 Y105.578 E.06501
G1 X132.977 Y106.673 E.04885
G1 X132.516 Y108.32 E.07585
G1 X131.727 Y109.836 E.07583
G1 X130.644 Y111.158 E.0758
G1 X129.313 Y112.229 E.07576
G1 X127.792 Y113.004 E.07572
G1 X126.146 Y113.452 E.07567
G1 X124.444 Y113.552 E.07561
G1 X122.759 Y113.303 E.07556
M73 Q9 S6
G1 X122.026 Y113.033 E.03463
; printing object bottle.stl id:0 copy 0
;WIPE_START
M73 P9 R6
G1 F8640
G1 X121.162 Y112.715 E-.21282
G1 X119.719 Y111.813 E-.39286
G1 X119.23 Y111.357 E-.15432
;WIPE_END
G1 E-.04 F2100
G1 Z.9 F720
G1 X130.353 Y105.419 F10800
G1 Z.5 F720
G1 E.8 F2100
M204 S800
;TYPE:External perimeter
;WIDTH:0.404381
G1 F900
G1 X130.294 Y106.13 E.03026
G1 X130.175 Y106.691 E.02433
G1 X129.999 Y107.237 E.02432
G1 X129.767 Y107.761 E.02431
G1 X129.482 Y108.258 E.0243
G1 X129.147 Y108.723 E.02429
G1 X128.765 Y109.149 E.02426
G1 X128.341 Y109.532 E.02424
G1 X127.88 Y109.869 E.02421
G1 X127.388 Y110.156 E.02418
G1 X126.869 Y110.39 E.02414
;WIDTH:0.410739
G1 X126.329 Y110.568 E.02455
;WIDTH:0.417475
G1 X125.775 Y110.69 E.02499
;WIDTH:0.424285
G1 X125.212 Y110.754 E.02544
;WIDTH:0.431089
G1 X124.646 Y110.76 E.02587
;WIDTH:0.437758
G1 X124.225 Y110.72 E.0197
;TYPE:Overhang perimeter
;WIDTH:0.437817
G1 F1800
G1 X124.084 Y110.707 E.0066
;WIDTH:0.444387
G1 X123.531 Y110.598 E.02672
;WIDTH:0.450745
G1 X122.992 Y110.432 E.02713
;WIDTH:0.456819
G1 X122.475 Y110.213 E.02751
;WIDTH:0.462535
G1 X121.983 Y109.942 E.02787
;WIDTH:0.467853
G1 X121.522 Y109.624 E.02821
;WIDTH:0.473805
G1 X121.097 Y109.259 E.02859
;WIDTH:0.491333
G1 X120.716 Y108.851 E.02976
;WIDTH:0.511823
G1 X120.38 Y108.405 E.03111
;WIDTH:0.528795
G1 X120.092 Y107.93 E.03222
;WIDTH:0.542413
G1 X119.852 Y107.429 E.0331
;WIDTH:0.552667
G1 X119.663 Y106.908 E.03375
;WIDTH:0.559557
G1 X119.526 Y106.372 E.0342
;WIDTH:0.563069
G1 X119.444 Y105.824 E.03441
;WIDTH:0.563575
G1 X119.416 Y105.272 E.03444
G1 X119.416 Y105.259 E.00079
;WIDTH:0.563253
G1 X119.449 Y104.679 E.03617
;WIDTH:0.560153
G1 X119.54 Y104.107 E.0358
;WIDTH:0.553919
G1 X119.69 Y103.553 E.03507
;WIDTH:0.544711
G1 X119.892 Y103.022 E.03404
;WIDTH:0.532695
G1 X120.144 Y102.521 E.03272
;WIDTH:0.518069
G1 X120.438 Y102.056 E.03117
;WIDTH:0.501059
G1 X120.773 Y101.627 E.02962
;WIDTH:0.481707
G1 X121.136 Y101.247 E.02735
;WIDTH:0.467853
G1 X121.522 Y100.921 E.02545
G1 X121.983 Y100.602 E.02821
;WIDTH:0.462535
G1 X122.475 Y100.331 E.02787
;WIDTH:0.456819
G1 X122.992 Y100.112 E.02751
;WIDTH:0.450745
G1 X123.531 Y99.947 E.02713
;WIDTH:0.444387
G1 X124.084 Y99.837 E.02672
;WIDTH:0.437815
G1 X124.225 Y99.824 E.0066
;TYPE:External perimeter
;WIDTH:0.433059
G1 F900
G1 X124.646 Y99.785 E.01945
;WIDTH:0.431089
G1 X125.212 Y99.79 E.02587
;WIDTH:0.424285
G1 X125.775 Y99.854 E.02544
;WIDTH:0.417477
G1 X126.329 Y99.976 E.02499
;WIDTH:0.410737
G1 X126.869 Y100.155 E.02456
;WIDTH:0.404381
G1 X127.388 Y100.388 E.02414
G1 X127.88 Y100.675 E.02418
G1 X128.341 Y101.012 E.02421
G1 X128.765 Y101.395 E.02424
G1 X129.147 Y101.821 E.02426
G1 X129.482 Y102.286 E.02429
G1 X129.767 Y102.783 E.0243
G1 X129.999 Y103.307 E.02431
G1 X130.175 Y103.853 E.02432
G1 X130.294 Y104.414 E.02433
G1 X130.353 Y104.985 E.02433
G1 X130.353 Y105.359 E.01583
M204 S1000
